X: 20536
T: John McFadden's Favourite
R: reel
M: 4/4
K: Gmajor
GBAG EGDE|GABd edBG|DG~G2 DGBd|gedB cBAF|
GBAG EGDE|GABd edBG|DG~G2 DGBd|gedc Bdef||
gBdg bgfg|ea~a2 ea~a2|gbdg bgag|(3efgdc Bdef|
gBdg bgfg|ea~a2 ea~a2|bgga gedc|(3Bcd gB (3efg dB||

